X:4930
T:Fahey's, Paddy
M:6/8
L:1/8
K:G Major
=F_E|DGA _B3|c3 d2g|=fdg gfd|cAG =F3|!
DGA _BAB|c_Bc d2g|fdg gfd|cAF G:|!
Bd|g2d fga|gfd c3|A_BA =fef|agf def|!
g2a _bag|fdg fdc|B2G Adc|AGF G:|!
